assets/thin/buildings-thin.svg

<svg id="Flat" xmlns="http://www.w3.org/2000/svg" viewBox="0 0 256 256">
  <path d="M240,211.98316H227.99414v-108a12.01343,12.01343,0,0,0-12-12h-68v-52a12.01343,12.01343,0,0,0-12-12h-96a12.01343,12.01343,0,0,0-12,12v172H16a4,4,0,0,0,0,8H240a4,4,0,0,0,0-8Zm-24.00586-112a4.00426,4.00426,0,0,1,4,4v108h-72v-112Zm-180-60a4.00427,4.00427,0,0,1,4-4h96a4.00426,4.00426,0,0,1,4,4v172h-104Zm24,32a4.0002,4.0002,0,0,1,4-4h32a4,4,0,1,1,0,8h-32A4.0002,4.0002,0,0,1,59.99414,71.98316Zm56,64a4.0002,4.0002,0,0,1-4,4h-32a4,4,0,0,1,0-8h32A4.0002,4.0002,0,0,1,115.99414,135.98316Zm-16,40a4.0002,4.0002,0,0,1-4,4h-32a4,4,0,0,1,0-8h32A4.0002,4.0002,0,0,1,99.99414,175.98316Zm96,0a4.0002,4.0002,0,0,1-4,4h-16a4,4,0,0,1,0-8h16A4.0002,4.0002,0,0,1,195.99414,175.98316Zm-24-40a4.0002,4.0002,0,0,1,4-4h16a4,4,0,1,1,0,8h-16A4.0002,4.0002,0,0,1,171.99414,135.98316Z"/>
</svg>

<svg xmlns="http://www.w3.org/2000/svg" viewBox="0 0 256 256"><path d="M240,212H228V104a12,12,0,0,0-12-12H148V40a12,12,0,0,0-12-12H40A12,12,0,0,0,28,40V212H16a4,4,0,0,0,0,8H240a4,4,0,0,0,0-8ZM216,100a4,4,0,0,1,4,4V212H148V100ZM36,40a4,4,0,0,1,4-4h96a4,4,0,0,1,4,4V212H36ZM60,72a4,4,0,0,1,4-4H96a4,4,0,0,1,0,8H64A4,4,0,0,1,60,72Zm56,64a4,4,0,0,1-4,4H80a4,4,0,0,1,0-8h32A4,4,0,0,1,116,136Zm-16,40a4,4,0,0,1-4,4H64a4,4,0,0,1,0-8H96A4,4,0,0,1,100,176Zm96,0a4,4,0,0,1-4,4H176a4,4,0,0,1,0-8h16A4,4,0,0,1,196,176Zm-24-40a4,4,0,0,1,4-4h16a4,4,0,0,1,0,8H176A4,4,0,0,1,172,136Z"/></svg>
